Safari/img/services/01.svg

<svg width="45" height="45" viewBox="0 0 45 45" fill="none" xmlns="http://www.w3.org/2000/svg">
<path d="M40.0765 23.0068C40.0768 21.9762 39.9877 20.9474 39.8109 19.932L38.3486 20.1875C39.4372 26.4263 36.8201 32.7317 31.6337 36.3657L30.4382 34.4139C30.0338 33.7594 29.9986 32.9419 30.3447 32.2548L30.6821 31.5804C30.8071 31.3286 31.0644 31.1695 31.3456 31.1706H32.3922C33.3036 31.1735 34.124 30.6183 34.4599 29.7711L35.4641 27.2594C35.5699 26.9967 35.6243 26.7155 35.6235 26.4321V24.7992C35.6246 24.4053 35.4681 24.027 35.1887 23.749L34.2979 22.8586C33.8464 22.4064 33.1561 22.2944 32.5842 22.5803L30.7578 23.4939C30.5491 23.5983 30.3034 23.5983 30.0943 23.4939L27.1257 22.0096C26.8749 21.8842 26.7169 21.6276 26.7176 21.3475V19.2961C26.7176 18.4763 26.053 17.8117 25.2333 17.8117C24.8235 17.8117 24.4912 17.4794 24.4912 17.0696V16.3274C24.4912 16.0941 24.6013 15.8741 24.788 15.7338L27.163 13.9527L26.2723 12.7652L23.8976 14.5463C23.3384 14.9681 23.0087 15.6273 23.0069 16.3274V17.0696C23.0069 18.2991 24.0038 19.2961 25.2333 19.2961V21.3475C25.2304 22.1915 25.7077 22.9637 26.464 23.3388L29.4326 24.8231C30.0599 25.1351 30.797 25.1351 31.4243 24.8231L33.251 23.9103L34.1414 24.8006V26.4335C34.1418 26.5278 34.1233 26.6212 34.0881 26.7089L33.0832 29.221C32.9716 29.5036 32.698 29.6888 32.3943 29.6877H31.3478C30.5038 29.6848 29.7316 30.1621 29.3569 30.9184L29.0191 31.5931C28.4422 32.7379 28.5009 34.1004 29.1742 35.1916L30.3839 37.1666C25.812 39.7985 20.2477 40.05 15.457 37.842L16.3677 37.234C16.4887 37.1528 16.6311 37.1089 16.7771 37.1079H18.6807C19.2718 37.1097 19.8389 36.8748 20.2557 36.4556L22.3546 34.3567C22.7735 33.9399 23.0087 33.3728 23.0069 32.7817V29.354C23.0069 28.9517 22.8978 28.5571 22.6916 28.2117L21.1062 25.5606C20.7007 24.8985 19.9806 24.4937 19.204 24.4912H17.1214C16.376 24.4904 15.6795 24.8626 15.266 25.4826L14.4459 26.7176H12.6166C11.7969 26.7176 11.1323 27.3822 11.1323 28.202V29.6196C11.1323 29.8715 11.0044 30.1063 10.7924 30.2429L8.4768 31.7363C6.816 29.1278 5.93469 26.0991 5.93723 23.0068C5.93723 22.7583 5.94447 22.5111 5.95571 22.2647H7.24651C7.52772 22.264 7.78501 22.4231 7.91003 22.6753L8.77902 24.4169C9.03015 24.9195 9.54473 25.2359 10.1068 25.2333H10.8903C11.3566 25.234 11.7962 25.0159 12.0771 24.6437C12.3583 24.2716 12.4481 23.7892 12.3199 23.341L11.3744 20.0382H12.8391C13.345 20.0382 13.8353 19.8661 14.23 19.5501L16.6525 17.6121C17.4327 16.9859 17.7005 15.9168 17.3077 14.9968L16.0372 12.0281C15.8908 11.6868 16.0194 11.29 16.3379 11.099L18.2067 9.97777C18.884 9.56937 19.2953 8.83301 19.2877 8.04193L19.2754 6.95623C21.6689 6.50688 24.1331 6.59965 26.4861 7.22802L26.8662 5.79697C19.4954 3.82598 11.6879 6.76815 7.45126 13.1135C3.21465 19.4588 3.4897 27.7975 8.13543 33.8497C12.7812 39.9022 20.7655 42.3233 27.9903 39.8707C35.2151 37.4181 40.0754 30.6364 40.0765 23.0068ZM17.7933 7.30738L17.802 8.06294C17.8052 8.32676 17.6679 8.57209 17.4414 8.70762L15.5719 9.82919C14.6203 10.405 14.2365 11.5929 14.6717 12.6166L15.9422 15.5853C16.0738 15.8918 15.9846 16.2488 15.7241 16.4575L13.3015 18.3952C13.17 18.4988 13.0069 18.5546 12.8391 18.5539H11.3744C10.908 18.5532 10.4684 18.7717 10.1876 19.1439C9.90639 19.5157 9.81652 19.9984 9.9448 20.4466L10.8903 23.749H10.1068L9.23743 22.011C8.86273 21.2547 8.0905 20.7775 7.24651 20.7804H6.09305C6.98668 14.3713 11.5726 9.09066 17.7933 7.30738ZM9.32876 32.9517L11.5969 31.4898C12.2336 31.0811 12.6177 30.3759 12.6166 29.6196V28.202H14.4459C14.9424 28.202 15.4059 27.9537 15.6809 27.5406L16.5039 26.306C16.6416 26.0994 16.8735 25.9755 17.1214 25.9755H19.204C19.4609 25.9758 19.6998 26.1088 19.8349 26.3274L21.4171 28.9738C21.4863 29.0887 21.5225 29.2199 21.5225 29.354V32.7817C21.5225 32.9789 21.4446 33.168 21.3051 33.3072L19.2062 35.4061C19.067 35.5456 18.8779 35.6239 18.6807 35.6235H16.7771C16.3372 35.6235 15.9067 35.754 15.5407 35.9982L13.9578 37.0553C12.1695 35.9924 10.5985 34.5998 9.32876 32.9517Z" fill="white"/>
<path d="M1.53465 23.7291L0.0543213 23.8324C0.0891099 24.3347 0.141655 24.8431 0.21087 25.3424L1.68178 25.1391C1.61727 24.6731 1.56727 24.1944 1.53465 23.7291Z" fill="white"/>
<path d="M3.78509 12.7482L2.46639 12.0669C2.23482 12.5119 2.01558 12.9776 1.81519 13.4421L3.1781 14.0306C3.36654 13.5972 3.57129 13.166 3.78509 12.7482Z" fill="white"/>
<path d="M1.92349 26.5358L0.470337 26.8409C0.57434 27.3359 0.693202 27.8316 0.832718 28.3165L2.2605 27.9135C2.13367 27.4598 2.02024 26.9982 1.92349 26.5358Z" fill="white"/>
<path d="M1.90506 18.0835L0.45046 17.7867C0.350443 18.2785 0.26492 18.7833 0.198242 19.2848L1.66915 19.4816C1.73148 19.0134 1.81084 18.5427 1.90506 18.0835Z" fill="white"/>
<path d="M5.25671 10.3229L4.04237 9.46802C3.75319 9.87968 3.47343 10.308 3.21143 10.7407L4.48049 11.5104C4.72546 11.1056 4.98673 10.7066 5.25671 10.3229Z" fill="white"/>
<path d="M2.6613 15.3516L1.26178 14.8588C1.09328 15.3375 0.940352 15.8238 0.805908 16.309L2.23695 16.7047C2.36089 16.2532 2.50403 15.7984 2.6613 15.3516Z" fill="white"/>
<path d="M1.52961 20.8924L0.0452977 20.796C0.01522 21.2805 0 21.7701 0 22.2648V22.3122L1.48432 22.2648C1.48432 21.8042 1.49954 21.3468 1.52961 20.8924Z" fill="white"/>
<path d="M2.69179 29.2642L1.29517 29.7642C1.46585 30.2408 1.65356 30.7151 1.85468 31.1743L3.21506 30.5807C3.02735 30.1509 2.85123 29.7088 2.69179 29.2642Z" fill="white"/>
<path d="M7.0422 8.11848L5.95505 7.10852C5.61152 7.4796 5.27595 7.86481 4.95923 8.2551L6.11233 9.1904C6.40767 8.82512 6.72113 8.46455 7.0422 8.11848Z" fill="white"/>
<path d="M19.3704 1.68551L19.1624 0.2146C18.6652 0.283815 18.1615 0.371873 17.6658 0.475877L17.9705 1.92975C18.4329 1.83118 18.9037 1.74929 19.3704 1.68551Z" fill="white"/>
<path d="M22.1967 1.48432L22.1905 0C21.6828 0 21.1722 0.0202933 20.6729 0.0558068L20.7783 1.54012C21.2469 1.5028 21.7194 1.48432 22.1967 1.48432Z" fill="white"/>
<path d="M16.5931 2.26811L16.1902 0.8396C15.7071 0.975855 15.2193 1.13168 14.7432 1.30345L15.2447 2.70007C15.6893 2.54062 16.1427 2.39567 16.5931 2.26811Z" fill="white"/>
<path d="M9.10911 6.17866L8.16945 5.02991C7.77917 5.3488 7.39468 5.68582 7.02759 6.03081L8.04334 7.11288C8.38616 6.79072 8.74564 6.47617 9.10911 6.17866Z" fill="white"/>
<path d="M13.9288 3.22416L13.3349 1.8645C12.8758 2.06562 12.4155 2.28668 11.9666 2.52114L12.6536 3.83622C13.0707 3.61734 13.4998 3.41405 13.9288 3.22416Z" fill="white"/>
<path d="M11.419 4.53558L10.6424 3.27014C10.2119 3.53432 9.78607 3.81625 9.37622 4.10797L10.2365 5.3176C10.6196 5.0469 11.0167 4.78164 11.419 4.53558Z" fill="white"/>
<path d="M30.5582 41.3241L31.1522 42.6845C31.6146 42.4834 32.0744 42.2631 32.5212 42.0308L31.8385 40.7139C31.42 40.9306 30.9895 41.1364 30.5582 41.3241Z" fill="white"/>
<path d="M37.4551 36.4444L38.5404 37.4583C38.8847 37.0873 39.221 36.7042 39.5391 36.3132L38.3882 35.3757C38.0907 35.741 37.7758 36.1009 37.4551 36.4444Z" fill="white"/>
<path d="M35.3848 38.3809L36.3226 39.5311C36.7129 39.2126 37.0974 38.8766 37.4663 38.5327L36.4534 37.4478C36.1074 37.771 35.7511 38.0819 35.3848 38.3809Z" fill="white"/>
<path d="M39.2467 34.2447L40.4589 35.1043C40.7499 34.6923 41.0311 34.2654 41.2931 33.8334L40.0255 33.0619C39.7798 33.4609 39.5185 33.8602 39.2467 34.2447Z" fill="white"/>
<path d="M33.0714 40.0178L33.8426 41.2847C34.2716 41.0227 34.6981 40.7422 35.1109 40.4505L34.2528 39.2394C33.8708 39.5119 33.4715 39.7739 33.0714 40.0178Z" fill="white"/>
<path d="M27.8918 42.274L28.2926 43.7036C28.7771 43.5677 29.2649 43.4126 29.7407 43.2434L29.241 41.8453C28.7956 42.0062 28.3437 42.1479 27.8918 42.274Z" fill="white"/>
<path d="M42.9977 23.6831L44.4784 23.7824C44.5124 23.2794 44.5295 22.7688 44.5295 22.2648H43.0452C43.0452 22.7413 43.0292 23.2142 42.9977 23.6831Z" fill="white"/>
<path d="M42.6154 26.4908L44.0692 26.7876C44.1711 26.2955 44.2569 25.7907 44.3254 25.2899L42.8545 25.0902C42.7907 25.5613 42.7103 26.0313 42.6154 26.4908Z" fill="white"/>
<path d="M41.8533 29.2203L43.2513 29.7168C43.4213 29.2388 43.5757 28.7521 43.7108 28.268L42.2809 27.869C42.1544 28.3195 42.0105 28.7742 41.8533 29.2203Z" fill="white"/>
<path d="M40.7216 31.8221L42.0395 32.506C42.2718 32.0606 42.4914 31.5967 42.6926 31.1329L41.3314 30.5389C41.1437 30.9731 40.9383 31.4043 40.7216 31.8221Z" fill="white"/>
<path d="M3.8257 31.8573L2.50989 32.5444C2.74362 32.9897 2.99548 33.4351 3.25748 33.8645L4.52727 33.0905C4.2794 32.6908 4.04494 32.2759 3.8257 31.8573Z" fill="white"/>
<path d="M8.23804 39.5573C8.63122 39.8769 9.0389 40.1856 9.44912 40.4752L10.3025 39.2601C9.91623 38.9872 9.53899 38.7017 9.17081 38.4038L8.23804 39.5573Z" fill="white"/>
<path d="M13.4191 42.703C13.88 42.9027 14.3565 43.0904 14.836 43.2604L15.331 41.8608C14.8856 41.7018 14.4403 41.5275 14.0105 41.3412L13.4191 42.703Z" fill="white"/>
<path d="M10.7189 41.3057C11.1523 41.5691 11.5984 41.8192 12.0452 42.0478L12.7272 40.7287C12.3101 40.5135 11.8944 40.2798 11.4893 40.0341L10.7189 41.3057Z" fill="white"/>
<path d="M6.0116 37.4844C6.35803 37.8555 6.72042 38.2153 7.08678 38.5574L8.09928 37.471C7.75647 37.1517 7.418 36.8147 7.09439 36.4697L6.0116 37.4844Z" fill="white"/>
<path d="M5.30422 34.2751L4.09314 35.1329C4.38486 35.5442 4.69433 35.9493 5.01323 36.3414L6.1598 35.4011C5.86301 35.0372 5.57601 34.6589 5.30422 34.2751Z" fill="white"/>
<path d="M25.1167 42.851L25.3178 44.3212C25.8161 44.2527 26.3198 44.1668 26.8155 44.0635L26.5144 42.6104C26.0498 42.706 25.5816 42.7872 25.1167 42.851Z" fill="white"/>
<path d="M19.2599 44.3284C19.7564 44.3954 20.2648 44.4465 20.7714 44.4769L20.8703 42.9926C20.396 42.9615 19.9216 42.9133 19.4603 42.851L19.2599 44.3284Z" fill="white"/>
<path d="M22.2869 43.0452V44.5295C22.7953 44.5295 23.3059 44.5118 23.8056 44.477L23.7038 42.9927C23.2363 43.0278 22.7641 43.0452 22.2869 43.0452Z" fill="white"/>
<path d="M16.2852 43.717C16.7729 43.8525 17.2701 43.9728 17.7622 44.0739L18.059 42.62C17.5995 42.5258 17.1357 42.4135 16.6816 42.2874L16.2852 43.717Z" fill="white"/>
<path d="M28.3507 6.26296L27.9238 13.5215C27.8618 14.5796 28.255 15.6139 29.0044 16.364L30.4441 17.8023L33.0645 10.9841L35.7135 13.6327V16.9087C35.7124 17.4982 35.9473 18.0643 36.3658 18.4796L37.6526 19.7675L39.2268 17.1438L39.6044 17.5207C40.1636 18.0998 40.9913 18.3317 41.77 18.1281C42.5484 17.9244 43.1561 17.3163 43.3601 16.5379C43.5638 15.7595 43.3315 14.9315 42.7528 14.3727L42.3759 13.9955L44.9999 12.4209L43.7131 11.1323C43.2967 10.713 42.73 10.4782 42.1389 10.48H38.8615L36.2172 7.83207L43.0394 5.20843L41.5964 3.76796C40.8474 3.01783 39.8128 2.62501 38.755 2.68806L31.4965 3.11495L29.1091 0.726492C28.2278 -0.114234 26.8413 -0.114234 25.96 0.726492C25.0903 1.59621 25.0903 3.00587 25.96 3.87559L28.3507 6.26296ZM29.8839 15.1228C29.544 14.6938 29.3737 14.1545 29.4052 13.6081L29.7545 7.67081L31.9187 9.83496L29.8839 15.1228ZM37.3602 17.3663C37.2555 17.2344 37.1982 17.071 37.1978 16.9025V15.1134L38.1469 16.061L37.3602 17.3663ZM42.1382 11.9621C42.3067 11.9625 42.4701 12.0198 42.602 12.1245L41.2946 12.9134L40.3466 11.9665L42.1382 11.9621ZM38.8416 4.16948C39.3881 4.13723 39.9277 4.30791 40.3564 4.64819L35.0656 6.68296L32.9014 4.51882L38.8416 4.16948ZM27.0102 1.77667C27.2998 1.48749 27.769 1.48749 28.0589 1.77667L41.7033 15.4214C41.9925 15.711 41.9925 16.1803 41.7033 16.4698C41.4098 16.7507 40.9474 16.7507 40.6539 16.4698L27.0102 2.82541C26.721 2.5355 26.721 2.06658 27.0102 1.77667Z" fill="white"/>
</svg>

<svg width="45" height="45" fill="none" xmlns="http://www.w3.org/2000/svg"><path d="M40.077 23.007c0-1.03-.09-2.06-.266-3.075l-1.462.256a16.327 16.327 0 01-6.715 16.178l-1.196-1.952a2.213 2.213 0 01-.093-2.16l.337-.674a.738.738 0 01.664-.41h1.046a2.217 2.217 0 002.068-1.399l1.004-2.512a2.2 2.2 0 00.16-.827V24.8a1.476 1.476 0 00-.435-1.05l-.891-.89a1.484 1.484 0 00-1.714-.279l-1.826.914a.742.742 0 01-.664 0l-2.968-1.484a.738.738 0 01-.408-.663v-2.05c0-.82-.665-1.485-1.485-1.485a.742.742 0 01-.742-.742v-.743c0-.233.11-.453.297-.593l2.375-1.781-.89-1.188-2.375 1.781a2.239 2.239 0 00-.891 1.781v.743c0 1.23.997 2.226 2.226 2.226v2.052a2.214 2.214 0 001.231 1.99l2.969 1.485a2.236 2.236 0 001.991 0l1.827-.913.89.89v1.633a.731.731 0 01-.053.276l-1.005 2.512a.738.738 0 01-.689.467h-1.046a2.213 2.213 0 00-1.991 1.23l-.338.675a3.69 3.69 0 00.155 3.599l1.21 1.975a16.27 16.27 0 01-14.927.675l.91-.608a.744.744 0 01.41-.126h1.904a2.211 2.211 0 001.575-.652l2.099-2.1c.418-.416.654-.983.652-1.574v-3.428c0-.402-.11-.797-.315-1.142l-1.586-2.651a2.24 2.24 0 00-1.902-1.07h-2.083a2.23 2.23 0 00-1.855.992l-.82 1.235h-1.83c-.82 0-1.484.664-1.484 1.484v1.418a.741.741 0 01-.34.623l-2.315 1.493a16.23 16.23 0 01-2.521-9.471h1.29a.738.738 0 01.664.41l.869 1.742c.251.502.766.819 1.328.816h.783a1.484 1.484 0 001.43-1.892l-.946-3.303h1.465c.506 0 .996-.172 1.391-.488l2.422-1.938a2.23 2.23 0 00.656-2.615l-1.27-2.969a.742.742 0 01.3-.929l1.869-1.121a2.236 2.236 0 001.08-1.936l-.012-1.086a16.295 16.295 0 017.211.272l.38-1.431a17.812 17.812 0 1013.21 17.21zm-22.284-15.7l.009.756a.74.74 0 01-.36.645l-1.87 1.121a2.236 2.236 0 00-.9 2.788l1.27 2.968a.742.742 0 01-.218.872l-2.422 1.938a.742.742 0 01-.463.159h-1.465a1.484 1.484 0 00-1.43 1.893l.946 3.302h-.783l-.87-1.738a2.213 2.213 0 00-1.99-1.23H6.093a16.367 16.367 0 0111.7-13.474zM9.33 32.952l2.268-1.462a2.218 2.218 0 001.02-1.87v-1.418h1.829c.496 0 .96-.248 1.235-.661l.823-1.235a.742.742 0 01.617-.33h2.083a.74.74 0 01.63.351l1.583 2.647c.07.115.105.246.105.38v3.428a.742.742 0 01-.217.525l-2.099 2.1a.74.74 0 01-.525.217h-1.904c-.44 0-.87.13-1.236.374l-1.583 1.057a16.46 16.46 0 01-4.63-4.103zM1.535 23.73l-1.48.102c.034.503.087 1.011.156 1.51l1.47-.203a21.175 21.175 0 01-.146-1.41zm2.25-10.982l-1.319-.681c-.231.445-.45.91-.65 1.375l1.362.589c.189-.434.393-.865.607-1.283zM1.923 26.536L.47 26.84c.104.495.223.99.363 1.476l1.428-.404c-.127-.453-.24-.915-.338-1.377zm-.018-8.452L.45 17.787c-.1.492-.185.996-.252 1.498l1.471.197c.062-.469.142-.94.236-1.398zm3.352-7.761l-1.215-.855c-.289.412-.569.84-.83 1.273l1.268.77c.245-.405.507-.804.777-1.188zm-2.596 5.029l-1.4-.493c-.168.479-.32.965-.455 1.45l1.431.396c.124-.452.267-.907.424-1.353zm-1.131 5.54l-1.485-.096A23.7 23.7 0 000 22.265v.047l1.484-.047c0-.46.016-.918.046-1.373zm1.162 8.372l-1.397.5c.17.477.359.951.56 1.41l1.36-.593c-.188-.43-.364-.872-.523-1.317zm4.35-21.146l-1.087-1.01c-.343.372-.68.757-.996 1.147l1.153.935c.296-.365.61-.725.93-1.072zM19.37 1.686L19.162.215c-.497.069-1 .157-1.496.26l.305 1.455c.462-.099.933-.18 1.4-.244zm2.827-.202L22.19 0c-.508 0-1.019.02-1.518.056l.105 1.484c.469-.037.941-.056 1.419-.056zm-5.604.784L16.19.84c-.483.136-.97.292-1.447.463l.502 1.397c.444-.16.898-.304 1.348-.432zM9.11 6.179l-.94-1.15c-.39.32-.775.657-1.142 1.002l1.015 1.082a20.94 20.94 0 011.066-.934zm4.819-2.955l-.594-1.36c-.46.202-.92.423-1.368.657l.687 1.315c.417-.219.846-.422 1.275-.612zm-2.51 1.312l-.777-1.266c-.43.264-.856.546-1.266.838l.86 1.21a21.4 21.4 0 011.183-.782zm19.139 36.788l.594 1.36c.463-.2.922-.42 1.37-.653l-.683-1.317c-.419.217-.85.422-1.28.61zm6.897-4.88l1.085 1.014c.345-.37.681-.754 1-1.145l-1.152-.937c-.297.365-.612.725-.933 1.068zm-2.07 1.936l.938 1.151c.39-.318.774-.654 1.143-.998l-1.013-1.085a21.47 21.47 0 01-1.068.933zm3.862-4.135l1.212.86c.29-.413.572-.84.834-1.272l-1.267-.771a22.46 22.46 0 01-.78 1.183zm-6.176 5.773l.772 1.267a22.79 22.79 0 001.268-.834l-.858-1.212c-.382.273-.782.535-1.182.779zm-5.179 2.256l.4 1.43c.485-.136.973-.291 1.449-.46l-.5-1.399a18.7 18.7 0 01-1.35.429zm15.106-18.591l1.48.1c.034-.504.051-1.014.051-1.518h-1.484c0 .476-.016.95-.047 1.418zm-.383 2.807l1.454.298c.102-.492.188-.997.256-1.498l-1.47-.2c-.064.471-.145.941-.24 1.4zm-.762 2.73l1.398.497c.17-.478.325-.965.46-1.449l-1.43-.399c-.127.45-.27.905-.428 1.351zm-1.131 2.602l1.317.684c.233-.445.452-.91.654-1.373l-1.362-.594c-.187.434-.393.865-.61 1.283zm-36.896.035l-1.316.687c.234.446.485.891.747 1.32l1.27-.773a19.41 19.41 0 01-.701-1.234zm4.412 7.7c.393.32.8.629 1.211.918l.854-1.215a21.766 21.766 0 01-1.132-.856l-.933 1.153zm5.182 3.146c.46.2.937.387 1.416.557l.495-1.4c-.445-.158-.89-.332-1.32-.519l-.592 1.362zm-2.701-1.397c.433.263.88.513 1.326.742l.682-1.32a20.69 20.69 0 01-1.238-.694l-.77 1.272zm-4.707-3.822c.346.371.708.731 1.075 1.073l1.012-1.086c-.343-.32-.681-.656-1.005-1.001l-1.082 1.014zm-.708-3.209l-1.21.858c.29.411.6.816.92 1.208l1.146-.94a20.874 20.874 0 01-.856-1.126zm19.813 8.576l.2 1.47a22.168 22.168 0 001.498-.258l-.3-1.453c-.465.096-.933.177-1.398.241zm-5.857 1.477c.496.067 1.005.118 1.511.149l.1-1.484c-.475-.032-.95-.08-1.41-.142l-.201 1.477zm3.027-1.283v1.484c.508 0 1.019-.017 1.519-.052l-.102-1.484c-.468.035-.94.052-1.417.052z" fill="#fff"/><path d="M16.285 43.717c.488.136.985.256 1.477.357l.297-1.454c-.46-.094-.923-.206-1.377-.333l-.397 1.43zM28.35 6.263l-.426 7.258a3.714 3.714 0 001.08 2.843l1.44 1.438 2.62-6.818 2.65 2.649v3.276c-.002.59.233 1.155.652 1.57l1.287 1.288 1.574-2.623.377.377a2.227 2.227 0 103.149-3.148l-.377-.377L45 12.42l-1.287-1.289a2.208 2.208 0 00-1.574-.652H38.86l-2.644-2.648 6.822-2.624-1.443-1.44a3.704 3.704 0 00-2.841-1.08l-7.259.427L29.11.726a2.281 2.281 0 00-3.149 0c-.87.87-.87 2.28 0 3.15l2.39 2.387zm1.534 8.86a2.233 2.233 0 01-.479-1.515l.35-5.937 2.164 2.164-2.035 5.288zm7.476 2.243a.749.749 0 01-.162-.463v-1.79l.949.948-.787 1.305zm4.778-5.404a.75.75 0 01.464.162l-1.307.79-.948-.947 1.791-.005zM38.842 4.17a2.226 2.226 0 011.514.48l-5.29 2.034L32.9 4.519l5.94-.35zM27.01 1.777a.742.742 0 011.049 0L41.703 15.42c.29.29.29.76 0 1.049a.759.759 0 01-1.05 0L27.01 2.825a.742.742 0 010-1.048z" fill="#fff"/></svg>
